X:170
T:Woodman,The. RHu.166
S:R.Hughes MS,1823,Whitchurch,Shrops.
N:Song words written below music line. Stay traveller here tonight the
N:rain yet beats the wind is loud…
A:Whitchurch, Shropshire
Z:Tony Weatherall 2006
M:C
L:1/8
Q:1/2=80
K:C
c4cGG2|AFEDC2zC|F2E2A2G2|AF D>dB3G|!
c2c2cG G2|AF ED C2zG|AB c2f3e|ed cB c2zG|!
G2G2c3B|BA G^F G2zG|_B2_B2c2B2|c2d2B2zG|!
c2c2cG G2|AF ED C2zG|AB c2f3e|ed cB c4|!
c2c c c2zG|AF ED C2zC|F2E2A2G2|AF Dd B2zG|!
c2c2cGG2|AF ED C2zG|AB c2f3e|ed cB c2zG|!
G2G2c3B|BA G=F G2zG|_B2_B2A2=B2|c2d2B2zG|!
c2c2c2G2|AF ED C2zG|c3cf2e2|ewd cB c4|!
M:3/8
L:1/8
GEG|ec G|F ED|C2G|Ge d|!
=Fc B|A G=F|G3|GAB|cB A|DG F|!
E2B|AB c|fez|dc B|c2G|!
G2A|Gcz|F2ED|C3|]

